packages/tokens/icons/paintBucket/size32Px.svg

<svg viewBox="0 0 32 32" fill="none" xmlns="http://www.w3.org/2000/svg" width="1em" height="1em"><path d="M27 17L14.52 5L3.249 15.8375C2.02143 17.0179 2.02143 18.9821 3.249 20.1625L9.32067 26.0006C10.482 27.1173 12.318 27.1173 13.4793 26.0006L21.969 17.8375C22.5279 17.3001 23.273 17 24.0483 17H27Z" stroke="currentColor"/><path d="M12 14L12 3C12 2.33333 11.6 1 10 1C8.4 1 8 2.33333 8 3L8 10.75" stroke="currentColor" stroke-linecap="round"/><path d="M28 23L28 23C26.4574 26 24.4009 30 28 30C31.5992 30 29.5425 26 28 23Z" stroke="currentColor"/></svg>

<svg xmlns="http://www.w3.org/2000/svg" fill="none" viewBox="0 0 32 32" width="1em" height="1em"><path stroke="currentColor" d="M27 17 14.52 5 3.249 15.838a3 3 0 0 0 0 4.325L9.321 26a3 3 0 0 0 4.158 0l8.49-8.164a3 3 0 0 1 2.08-.837H27Z"/><path stroke="currentColor" stroke-linecap="round" d="M12 14V3c0-.667-.4-2-2-2S8 2.333 8 3v7.75"/><path stroke="currentColor" d="M28 23c-1.543 3-3.6 7 0 7s1.543-4 0-7Z"/></svg>
